icons/mini/rectangle-stack.svg

<svg width="20" height="20" viewBox="0 0 20 20" fill="none" xmlns="http://www.w3.org/2000/svg">
<path d="M5.12744 3.50197C5.16817 3.50066 5.20906 3.5 5.25011 3.5H14.7501C14.7912 3.5 14.832 3.50066 14.8728 3.50197C14.5645 2.62705 13.7305 2 12.7501 2H7.25011C6.26971 2 5.43576 2.62705 5.12744 3.50197Z" fill="#0F172A"/>
<path d="M1 10.25C1 9.00736 2.00736 8 3.25 8H16.75C17.9926 8 19 9.00736 19 10.25V15.75C19 16.9926 17.9926 18 16.75 18H3.25C2.00736 18 1 16.9926 1 15.75V10.25Z" fill="#0F172A"/>
<path d="M3.25011 6.5C3.20906 6.5 3.16817 6.50066 3.12744 6.50197C3.43576 5.62705 4.26971 5 5.25011 5H14.7501C15.7305 5 16.5645 5.62705 16.8728 6.50197C16.832 6.50066 16.7912 6.5 16.7501 6.5H3.25011Z" fill="#0F172A"/>
</svg>

<svg xmlns="http://www.w3.org/2000/svg" viewBox="0 0 20 20" fill="currentColor" aria-hidden="true" data-slot="icon">
  <path d="M5.127 3.502 5.25 3.5h9.5c.041 0 .082 0 .123.002A2.251 2.251 0 0 0 12.75 2h-5.5a2.25 2.25 0 0 0-2.123 1.502ZM1 10.25A2.25 2.25 0 0 1 3.25 8h13.5A2.25 2.25 0 0 1 19 10.25v5.5A2.25 2.25 0 0 1 16.75 18H3.25A2.25 2.25 0 0 1 1 15.75v-5.5ZM3.25 6.5c-.04 0-.082 0-.123.002A2.25 2.25 0 0 1 5.25 5h9.5c.98 0 1.814.627 2.123 1.502a3.819 3.819 0 0 0-.123-.002H3.25Z"/>
</svg>
